src/images/hackathon/api.svg

<svg fill="none" height="24" viewBox="0 0 24 24" width="24" xmlns="http://www.w3.org/2000/svg"><path d="m21.5088 3.4876-.9938-.99375c-.0375-.0375-.0843-.05391-.1336-.05391-.0492 0-.096.01875-.1335.05391l-1.7836 1.78359c-.7899-.53672-1.7086-.8039-2.6274-.8039-1.2 0-2.4.45703-3.3164 1.37343l-2.3883 2.38828c-.0726.07266-.0726.19219 0 .26485l6.368 6.368c.0375.0375.0844.0539.1336.0539.0469 0 .0961-.0188.1336-.0539l2.3883-2.3883c1.6148-1.6172 1.8047-4.11798.5695-5.94142l1.7836-1.78359c.0726-.075.0726-.19454 0-.26719zm-3.4828 6.8648-1.3922 1.3922-4.3781-4.3781 1.3922-1.39218c.5835-.5836 1.3617-.90704 2.189-.90704.8274 0 1.6031.3211 2.1891.90704.5836.58359.907 1.36171.907 2.18906 0 .82734-.3234 1.60312-.907 2.18902zm-4.4578 2.461c-.0727-.0727-.1922-.0727-.2649 0l-1.5609 1.5609-2.11642-2.1164 1.56332-1.5633c.0726-.0726.0726-.1922 0-.2648l-.8532-.85314c-.0726-.07266-.1922-.07266-.2648 0l-1.56329 1.56324-1.00781-1.0078c-.0375-.0375-.08438-.0539-.1336-.0539-.04687 0-.09609.0188-.13359.0539l-2.38594 2.3883c-1.61484 1.6172-1.80469 4.118-.56953 5.9414l-1.78359 1.7836c-.07266.0727-.07266.1922 0 .2649l.99375.9937c.0375.0375.08437.0539.13359.0539s.09609-.0187.13359-.0539l1.7836-1.7836c.78984.5367 1.70859.8039 2.62734.8039 1.2 0 2.39998-.457 3.31638-1.3734l2.3883-2.3883c.0727-.0727.0727-.1922 0-.2648l-1.0078-1.0079 1.5633-1.5632c.0726-.0727.0726-.1922 0-.2649zm-3.2157 5.2125c-.58355.5836-1.36168.907-2.18902.907-.82735 0-1.60313-.3211-2.18907-.907-.58359-.5836-.90703-1.3617-.90703-2.1891 0-.8273.3211-1.6031.90703-2.189l1.39219-1.3922 4.3781 4.3781z" fill="#545454"/></svg>

<svg width="24" height="24" viewBox="0 0 24 24" fill="none" xmlns="http://www.w3.org/2000/svg">
<path d="M21.5088 3.4876L20.515 2.49385C20.4775 2.45635 20.4307 2.43994 20.3814 2.43994C20.3322 2.43994 20.2854 2.45869 20.2479 2.49385L18.4643 4.27744C17.6744 3.74072 16.7557 3.47354 15.8369 3.47354C14.6369 3.47354 13.4369 3.93057 12.5205 4.84697L10.1322 7.23525C10.0596 7.30791 10.0596 7.42744 10.1322 7.5001L16.5002 13.8681C16.5377 13.9056 16.5846 13.922 16.6338 13.922C16.6807 13.922 16.7299 13.9032 16.7674 13.8681L19.1557 11.4798C20.7705 9.8626 20.9604 7.36182 19.7252 5.53838L21.5088 3.75479C21.5814 3.67979 21.5814 3.56025 21.5088 3.4876ZM18.026 10.3524L16.6338 11.7446L12.2557 7.3665L13.6479 5.97432C14.2314 5.39072 15.0096 5.06728 15.8369 5.06728C16.6643 5.06728 17.44 5.38838 18.026 5.97432C18.6096 6.55791 18.933 7.33603 18.933 8.16338C18.933 8.99072 18.6096 9.7665 18.026 10.3524ZM13.5682 12.8134C13.4955 12.7407 13.376 12.7407 13.3033 12.8134L11.7424 14.3743L9.62598 12.2579L11.1893 10.6946C11.2619 10.622 11.2619 10.5024 11.1893 10.4298L10.3361 9.57666C10.2635 9.504 10.1439 9.504 10.0713 9.57666L8.50801 11.1399L7.5002 10.1321C7.4627 10.0946 7.41582 10.0782 7.3666 10.0782C7.31973 10.0782 7.27051 10.097 7.23301 10.1321L4.84707 12.5204C3.23223 14.1376 3.04238 16.6384 4.27754 18.4618L2.49395 20.2454C2.42129 20.3181 2.42129 20.4376 2.49395 20.5103L3.4877 21.504C3.5252 21.5415 3.57207 21.5579 3.62129 21.5579C3.67051 21.5579 3.71738 21.5392 3.75488 21.504L5.53848 19.7204C6.32832 20.2571 7.24707 20.5243 8.16582 20.5243C9.36582 20.5243 10.5658 20.0673 11.4822 19.1509L13.8705 16.7626C13.9432 16.6899 13.9432 16.5704 13.8705 16.4978L12.8627 15.4899L14.426 13.9267C14.4986 13.854 14.4986 13.7345 14.426 13.6618L13.5682 12.8134ZM10.3525 18.0259C9.76895 18.6095 8.99082 18.9329 8.16348 18.9329C7.33613 18.9329 6.56035 18.6118 5.97441 18.0259C5.39082 17.4423 5.06738 16.6642 5.06738 15.8368C5.06738 15.0095 5.38848 14.2337 5.97441 13.6478L7.3666 12.2556L11.7447 16.6337L10.3525 18.0259Z" fill="#545454"/>
</svg>
